emulators/vice/share/icons/Adwaita/symbolic/ui/checkbox-symbolic.svg

<?xml version="1.0" encoding="UTF-8"?>
<svg height="16px" viewBox="0 0 16 16" width="16px" xmlns="http://www.w3.org/2000/svg">
    <path d="m 3.007812 0 c -1.644531 0 -2.9999995 1.355469 -2.9999995 3 v 10 c 0 1.644531 1.3554685 3 2.9999995 3 h 10 c 1.644532 0 3 -1.355469 3 -3 v -10 c 0 -1.644531 -1.355468 -3 -3 -3 z m 0 2 h 10 c 0.570313 0 1 0.429688 1 1 v 10 c 0 0.570312 -0.429687 1 -1 1 h -10 c -0.570312 0 -1 -0.429688 -1 -1 v -10 c 0 -0.570312 0.429688 -1 1 -1 z m 0 0" fill="#2e3434" fill-opacity="0.960784"/>
</svg>

<?xml version="1.0" encoding="UTF-8"?>
<svg xmlns="http://www.w3.org/2000/svg" xmlns:xlink="http://www.w3.org/1999/xlink" width="16px" height="16px" viewBox="0 0 16 16" version="1.1">
<g id="surface27683">
<path style=" stroke:none;fill-rule:nonzero;fill:rgb(18.039216%,20.392157%,20.392157%);fill-opacity:0.960784;" d="M 3 0 C 1.355469 0 0 1.355469 0 3 L 0 13 C 0 14.644531 1.355469 16 3 16 L 13 16 C 14.644531 16 16 14.644531 16 13 L 16 3 C 16 1.355469 14.644531 0 13 0 Z M 3 2 L 13 2 C 13.570312 2 14 2.429688 14 3 L 14 13 C 14 13.570312 13.570312 14 13 14 L 3 14 C 2.429688 14 2 13.570312 2 13 L 2 3 C 2 2.429688 2.429688 2 3 2 Z M 3 2 "/>
</g>
</svg>
